X:1
T:The Marley Jig  "Composed by Tim Farrelly"
M:6/8
L:1/8
Q:80
C:
S:Jig
K:HP
|: e | \
{g}Ae{A}e{g}c{d}Aa | \
c{d}Ac{gef}eA{d}c | \
{g}Gd{c}d{g}B{d}Gg |
{a}B{d}G{d}B{gde}dG{d}B{g}Ae{A}e{g}c{d}Aa | \
c{d}Ac{gef}eA{d}c | \
{g}GB{G}B{gde}dcB |
{g}A{d}A{e}A{ag}a2 :: \
A | \
{g}ca{g}ae{g}e{A}e | \
{g}cdBc{e}c{G}c |
{g}ca{g}ae{g}e{A}e | \
{g}GB{G}B{gde}dG{d}B{g}ca{g}ae{g}e{A}e | \
{g}cdBc{e}c{G}c |
{g}GB{G}B{gde}dcB | \
{g}A{d}A{e}A{ag}a2 :|
